X:5431
T:Ralph Page Polka
O:england
M:C
K:A
L:1/8
C:Bob McQuillan
"A"efef e2d2|c2A6|efef e2d2|c8|"E7"deded2c2|B2E6|efef e2d2|"A"c8|efef e2
d2|c2A6|"A7"c2ccd2e2|"D"f8|f2ffe2d2|"A"c2cde2cd|"E7"e2d2c2B2|"A"A8||c2cd
c2B2|A2E6|A2BcB2A2|"E7"G8|B2BcB2A2|G2E6|e2efe2d2|"A"c8|c2cdc2B2|A2E6|"A7
"c2ccd2e2|"D"f8|a2aag2f2|"A"f2e2c2cd|"E7"e2dcB2e2|"A"A8||c4A3B|c2A2E2A2|
c4A3c|"E7"B8|B4G3A|B2G2E4|efefe2d2|"A"c8|c4A3B|c2A2E2A2|"A7"c4d3e|"D"f8|
f4g3f|"A"f2e2c3d|"E7"efedc2B2|"A"A8||E2AAc2e2|e2cef2e2|E2AAc2e2|"E7"dadc
B4|E2GGG2B2|deded2B2|EFGA Bcde|"A"f2e2e4|E2AAc2e2|e2cef2e2|"A7"a2gab2a2
|"D"a2f2f4|a4a3f|"A"f2e2c3d|"E7"edcBA2G2|"A"A8


